src/images/services/transportation-of-construction-equipment.svg

<svg width="96" height="96" viewBox="0 0 96 96" fill="none" xmlns="http://www.w3.org/2000/svg">
<path fill-rule="evenodd" clip-rule="evenodd" d="M17.4912 31.75C15.5478 31.75 13.8856 33.1469 13.5509 35.0613L10.9399 50H39.8871L35.0263 34.5496C34.5021 32.8834 32.9573 31.75 31.2106 31.75H17.4912ZM11.5808 34.717L8.90962 50H8.5C7.39543 50 6.5 50.8954 6.5 52V59.75H4.25C2.59315 59.75 1.25 61.0931 1.25 62.75V71.5C1.25 73.1569 2.59315 74.5 4.25 74.5H6.6323C7.47519 80.0207 12.2437 84.25 18 84.25H65.25C71.6013 84.25 76.75 79.1013 76.75 72.75C76.75 71.1048 76.4045 69.5402 75.7821 68.125H82.25V74.875C82.25 79.8456 86.2794 83.875 91.25 83.875H91.3844C93.2406 83.875 94.6513 82.2064 94.3426 80.376L89.6267 52.4174C89.4643 51.4547 88.6308 50.75 87.6545 50.75H84.25C83.1454 50.75 82.25 51.6454 82.25 52.75V55.9212C79.8395 56.7843 76.5127 57.9641 73.6322 58.9613C72.0542 59.5076 70.6147 59.9975 69.5345 60.3502C69.1298 60.4823 68.7795 60.5939 68.4934 60.6815L64.6211 52.796C63.7806 51.0845 62.0398 50 60.133 50H58V45.2C58 44.6477 58.4477 44.2 59 44.2C60.1046 44.2 61 43.3046 61 42.2V39.8333C61 38.8208 60.1792 38 59.1667 38C54.9325 38 51.5 41.4325 51.5 45.6667V50H41.9837L36.9341 33.9494C36.1478 31.4501 33.8307 29.75 31.2106 29.75H17.4912C14.5761 29.75 12.0827 31.8453 11.5808 34.717ZM8.5 72.75C8.5 77.9967 12.7533 82.25 18 82.25H65.25C70.4967 82.25 74.75 77.9967 74.75 72.75C74.75 71.0431 74.2998 69.4413 73.5118 68.057C73.1391 67.9116 72.875 67.5492 72.875 67.125L72.8751 67.1124C72.8752 67.1028 72.8755 67.0932 72.8758 67.0836C71.1443 64.7571 68.3731 63.25 65.25 63.25H18C12.7533 63.25 8.5 67.5033 8.5 72.75ZM8.5 59.75V60.75V66.2673C10.5711 63.238 14.0534 61.25 18 61.25H65.25C65.7005 61.25 66.1449 61.2759 66.5819 61.3263L62.8258 53.6776C62.3215 52.6507 61.2771 52 60.133 52H58H57H52.5H51.5H42.6129H41.25H9.75H8.56006H8.5V59.75ZM6.5 61.75H4.25C3.69772 61.75 3.25 62.1977 3.25 62.75V71.5C3.25 72.0523 3.69772 72.5 4.25 72.5H6.5V72V61.75ZM53.5 45.6667C53.5 42.5928 55.9475 40.0906 59 40.0024V42.2C57.3431 42.2 56 43.5431 56 45.2V50H53.5V45.6667ZM84.25 67.125V74.875C84.25 78.741 87.384 81.875 91.25 81.875H91.3844C92.0031 81.875 92.4734 81.3188 92.3705 80.7087L87.6545 52.75H84.25V56.6017C84.2504 56.6173 84.2504 56.6327 84.25 56.6482V67.125ZM82.25 58.0452V66.125H74.6511C73.4845 64.4726 71.8933 63.1414 70.0361 62.2902L70.1553 62.2514C71.2525 61.8932 72.7051 61.3987 74.2865 60.8512C76.9153 59.9412 79.9122 58.8804 82.25 58.0452ZM15.375 72.125C14.8227 72.125 14.375 72.5727 14.375 73.125C14.375 73.6773 14.8227 74.125 15.375 74.125H65.625C66.1773 74.125 66.625 73.6773 66.625 73.125C66.625 72.5727 66.1773 72.125 65.625 72.125H15.375Z" fill="#00CC66"/>
<path d="M18 31.5L18 51" stroke="#00CC66" stroke-width="2" stroke-linecap="round"/>
</svg>

<svg xmlns="http://www.w3.org/2000/svg" width="96" height="96" fill="none"><path fill="#0C6" fill-rule="evenodd" d="M17.491 31.75a4 4 0 0 0-3.94 3.311L10.94 50h28.947l-4.86-15.45a4 4 0 0 0-3.816-2.8H17.49Zm-5.91 2.967L8.91 50H8.5a2 2 0 0 0-2 2v7.75H4.25a3 3 0 0 0-3 3v8.75a3 3 0 0 0 3 3h2.382c.843 5.52 5.612 9.75 11.368 9.75h47.25c6.351 0 11.5-5.149 11.5-11.5 0-1.645-.346-3.21-.968-4.625h6.468v6.75a9 9 0 0 0 9 9h.134a3 3 0 0 0 2.959-3.499l-4.716-27.959a2 2 0 0 0-1.972-1.667H84.25a2 2 0 0 0-2 2v3.171c-2.41.863-5.737 2.043-8.618 3.04a262.639 262.639 0 0 1-4.098 1.39c-.404.131-.755.243-1.04.33l-3.873-7.885A5 5 0 0 0 60.133 50H58v-4.8a1 1 0 0 1 1-1 2 2 0 0 0 2-2v-2.367C61 38.821 60.18 38 59.167 38a7.667 7.667 0 0 0-7.667 7.667V50h-9.516l-5.05-16.05a6 6 0 0 0-5.723-4.2H17.49a6 6 0 0 0-5.91 4.967ZM8.5 72.75a9.5 9.5 0 0 0 9.5 9.5h47.25a9.5 9.5 0 0 0 8.262-14.193 1 1 0 0 1-.637-.932v-.041a9.486 9.486 0 0 0-7.625-3.834H18a9.5 9.5 0 0 0-9.5 9.5Zm0-13v6.517A11.488 11.488 0 0 1 18 61.25h47.25c.45 0 .895.026 1.332.076l-3.756-7.648A3 3 0 0 0 60.133 52H8.5v7.75Zm-2 2H4.25a1 1 0 0 0-1 1v8.75a1 1 0 0 0 1 1H6.5V61.75Zm47-16.083a5.667 5.667 0 0 1 5.5-5.665V42.2a3 3 0 0 0-3 3V50h-2.5v-4.333Zm30.75 21.458v7.75a7 7 0 0 0 7 7h.134a1 1 0 0 0 .987-1.166L87.655 52.75H84.25v14.375Zm-2-9.08v8.08h-7.599a11.546 11.546 0 0 0-4.615-3.835l.12-.039c1.096-.358 2.55-.852 4.13-1.4 2.63-.91 5.626-1.97 7.964-2.806Zm-66.875 14.08a1 1 0 1 0 0 2h50.25a1 1 0 1 0 0-2h-50.25Z" clip-rule="evenodd"/><path stroke="#0C6" stroke-linecap="round" stroke-width="2" d="M18 31.5V51"/></svg>
